X: 756
T: the Same Old Story   #2
R: reel
%S: s:2 b:10(5+5)
B: Francis O'Neill: "The Dance Music of Ireland" (1907) #756
Z: Frank Nordberg - http://www.musicaviva.com
F: http://www.musicaviva.com/abc/tunes/ireland/oneill-1001/0756/oneill-1001-0756-1.abc
N: Adjusted lengths of 1st/last notes from 4 to 2, to fix the rhythm. [JC]
N: Compacted via repeats and multiple endings [JC]
M: 2/4
L: 1/16
K: G
D2 "^A"|: G2(BG) ABcA | BdcA BGAD | G2(BG) ABcA | BdcA [1 GDEF :| [2 G2 |] D2 "^B"|: G2(GF) GABd |
| edef ed [1 BA | G2(GF) GABG | ABAG FDEF :|[2 Bd | gfgd edBG | AGEF G2 |]
